symbols/web/featured_video/materialsymbolsoutlined/featured_video_wght600gradN25fill1_48px.svg

<svg xmlns="http://www.w3.org/2000/svg" height="48" width="48"><path d="M10.1 27.5h17.6V14.1H10.1Zm-2.7 13q-1.6 0-2.725-1.15t-1.125-2.7v-25.3q0-1.6 1.125-2.725T7.4 7.5h33.2q1.6 0 2.75 1.125t1.15 2.725v25.3q0 1.55-1.15 2.7-1.15 1.15-2.75 1.15Z"/></svg>

<svg xmlns="http://www.w3.org/2000/svg" height="48" width="48"><path d="M10.1 27.5H27.7V14.1H10.1ZM7.4 40.5Q5.8 40.5 4.675 39.35Q3.55 38.2 3.55 36.65V11.35Q3.55 9.75 4.675 8.625Q5.8 7.5 7.4 7.5H40.6Q42.2 7.5 43.35 8.625Q44.5 9.75 44.5 11.35V36.65Q44.5 38.2 43.35 39.35Q42.2 40.5 40.6 40.5Z"/></svg>
